assets/img/braze_icons/eye.svg

<svg fill="none" height="24" viewBox="0 0 24 24" width="24" xmlns="http://www.w3.org/2000/svg"><g fill="#801ed7"><path d="m10 12c0-1.1046.8954-2 2-2s2 .8954 2 2-.8954 2-2 2-2-.8954-2-2z"/><path clip-rule="evenodd" d="m12 4c-2.86167 0-5.19465 1.26472-6.92325 2.70743-1.72625 1.44075-2.90978 3.10686-3.50253 4.04537l-.02408.038c-.11762.1852-.27033.4256-.34754.7624-.06233.2719-.06233.6217 0 .8936.0772.3368.22992.5772.34754.7624l.02409.038c.59274.9385 1.77627 2.6046 3.50252 4.0454 1.7286 1.4427 4.06158 2.7074 6.92325 2.7074 2.8617 0 5.1947-1.2647 6.9233-2.7074 1.7262-1.4408 2.9097-3.1069 3.5025-4.0454l.0241-.038c.1176-.1852.2703-.4255.3475-.7624.0623-.2719.0623-.6217 0-.8936-.0772-.3369-.2299-.5772-.3475-.7624l-.0241-.038c-.5928-.93851-1.7763-2.60462-3.5025-4.04537-1.7286-1.44271-4.0616-2.70743-6.9233-2.70743zm0 4c-2.20914 0-4 1.79086-4 4 0 2.2091 1.79086 4 4 4 2.2091 0 4-1.7909 4-4 0-2.20914-1.7909-4-4-4z" fill-rule="evenodd"/></g></svg>

<svg width="24" height="24" viewBox="0 0 24 24" fill="none" xmlns="http://www.w3.org/2000/svg">
<path d="M10 12C10 10.8954 10.8954 10 12 10C13.1046 10 14 10.8954 14 12C14 13.1046 13.1046 14 12 14C10.8954 14 10 13.1046 10 12Z" fill="#801ED7"/>
<path fill-rule="evenodd" clip-rule="evenodd" d="M12 4C9.13833 4 6.80535 5.26472 5.07675 6.70743C3.3505 8.14818 2.16697 9.81429 1.57422 10.7528L1.55014 10.7908C1.43252 10.976 1.27981 11.2164 1.2026 11.5532C1.14027 11.8251 1.14027 12.1749 1.2026 12.4468C1.2798 12.7836 1.43252 13.024 1.55014 13.2092L1.57423 13.2472C2.16697 14.1857 3.3505 15.8518 5.07675 17.2926C6.80535 18.7353 9.13833 20 12 20C14.8617 20 17.1947 18.7353 18.9233 17.2926C20.6495 15.8518 21.833 14.1857 22.4258 13.2472L22.4499 13.2092C22.5675 13.024 22.7202 12.7837 22.7974 12.4468C22.8597 12.1749 22.8597 11.8251 22.7974 11.5532C22.7202 11.2163 22.5675 10.976 22.4499 10.7908L22.4258 10.7528C21.833 9.81429 20.6495 8.14818 18.9233 6.70743C17.1947 5.26472 14.8617 4 12 4ZM12 8C9.79086 8 8 9.79086 8 12C8 14.2091 9.79086 16 12 16C14.2091 16 16 14.2091 16 12C16 9.79086 14.2091 8 12 8Z" fill="#801ED7"/>
</svg>
